; generated by PrusaSlicer 2.3.0+win64 on 2021-04-06 at 16:51:59 UTC

; 

; external perimeters extrusion width = 0.56mm
; perimeters extrusion width = 0.56mm
; infill extrusion width = 0.56mm
; solid infill extrusion width = 0.56mm
; top infill extrusion width = 0.50mm
; first layer extrusion width = 0.50mm

M107
;TYPE:Custom
M104 S250 ; set extruder temp
M140 S90 ; set bed temp
M190 S90 ; wait for bed temp
M109 S250 ; wait for extruder temp
G28 ; home all axes
G92 E0
G1 F6000 X0 Y0 Z0.3 E10
G92 E0
G1 F6000
G21 ; set units to millimeters
G90 ; use absolute coordinates
M83 ; use relative distances for extrusion
; Filament gcode
;LAYER_CHANGE
;Z:0.25
;HEIGHT:0.25
G1 Z0.250 F12000.000
G1 E-3.00000 F1800.000
G1 Z0.750 F12000.000
G1 X49.443 Y66.874
G1 Z0.250
G1 E3.00000 F1800.000
;TYPE:Skirt
;WIDTH:0.5
G1 F1500.000
G1 X50.821 Y66.261 E0.06647
G1 X52.304 Y65.985 E0.06647
G1 X91.663 Y65.970 E1.73468
G1 X142.177 Y69.007 E2.23030
G1 X143.959 Y69.391 E0.08036
G1 X145.686 Y70.095 E0.08217
G1 X147.419 Y71.207 E0.09075
G1 X148.817 Y72.536 E0.08504
G1 X149.659 Y73.629 E0.06079
G1 X150.365 Y74.850 E0.06217
G1 X154.249 Y83.284 E0.40921
G1 X157.973 Y97.827 E0.66165
G1 X158.260 Y99.615 E0.07981
G1 X158.358 Y101.881 E0.09995
G1 X158.242 Y103.546 E0.07355
G1 X157.948 Y105.283 E0.07766
G1 X154.184 Y119.907 E0.66550
G1 X150.110 Y128.637 E0.42462
G1 X149.098 Y130.131 E0.07954
G1 X147.663 Y131.593 E0.09028
G1 X146.300 Y132.565 E0.07376
G1 X144.877 Y133.279 E0.07017
G1 X143.314 Y133.786 E0.07244
G1 X141.786 Y134.036 E0.06824
G1 X91.860 Y137.026 E2.20430
G1 X52.403 Y137.021 E1.73899
G1 X51.110 Y136.821 E0.05768
G1 X49.884 Y136.364 E0.05768
G1 X48.780 Y135.673 E0.05740
G1 X47.833 Y134.769 E0.05768
G1 X47.348 Y134.123 E0.03564
G1 X46.944 Y133.415 E0.03591
G1 X42.418 Y123.705 E0.47214
G1 X42.018 Y122.466 E0.05740
G1 X41.876 Y121.171 E0.05740
G1 X41.910 Y81.218 E1.76084
G1 X42.089 Y80.238 E0.04391
G1 X42.419 Y79.291 E0.04419
G1 X46.907 Y69.664 E0.46814
G1 X47.297 Y68.956 E0.03564
G1 X48.250 Y67.787 E0.06647
G1 X49.384 Y66.920 E0.06289
G1 E-1.50000 F1800.000
;WIPE_START
G1 F9600.000
G1 X50.821 Y66.261 E-0.28167
G1 X52.304 Y65.985 E-0.26865
G1 X57.214 Y65.983 E-0.87468
;WIPE_END
G1 E-0.07500 F1800.000
G1 Z0.750 F12000.000
G1 X97.412 Y114.632
G1 Z0.250
G1 E3.00000 F1800.000
;TYPE:External perimeter
G1 F1500.000
G1 X97.662 Y114.422 E0.01437
G1 X97.931 Y114.232 E0.01452
G1 X98.455 Y113.949 E0.02625
G1 X98.761 Y113.828 E0.01452
G1 X99.072 Y113.734 E0.01432
G1 X99.391 Y113.666 E0.01437
G1 X99.761 Y113.623 E0.01639
G1 X100.312 Y113.623 E0.02431
G1 X100.639 Y113.660 E0.01450
G1 X101.000 Y113.733 E0.01623
G1 X101.312 Y113.828 E0.01437
G1 X101.619 Y113.949 E0.01452
G1 X102.142 Y114.232 E0.02625
G1 X102.411 Y114.422 E0.01452
G1 X102.660 Y114.631 E0.01432
G1 X102.892 Y114.861 E0.01437
G1 X103.128 Y115.144 E0.01623
G1 X103.316 Y115.413 E0.01449
G1 X103.578 Y115.899 E0.02432
G1 X103.716 Y116.244 E0.01640
G1 X103.808 Y116.557 E0.01437
G1 X103.874 Y116.875 E0.01432
G1 X103.913 Y117.202 E0.01452
G1 X103.913 Y117.798 E0.02625
G1 X103.874 Y118.125 E0.01452
G1 X103.808 Y118.443 E0.01432
G1 X103.716 Y118.755 E0.01432
G1 X103.599 Y119.058 E0.01432
G1 X103.456 Y119.350 E0.01432
G1 X103.288 Y119.632 E0.01450
G1 X102.923 Y120.103 E0.02627
G1 X102.661 Y120.368 E0.01642
G1 X102.411 Y120.578 E0.01437
G1 X102.146 Y120.765 E0.01432
G1 X101.862 Y120.932 E0.01451
G1 X101.317 Y121.171 E0.02625
G1 X101.001 Y121.266 E0.01452
G1 X100.683 Y121.334 E0.01432
G1 X100.361 Y121.374 E0.01432
G1 X100.032 Y121.388 E0.01452
G1 X99.438 Y121.341 E0.02625
G1 X99.073 Y121.267 E0.01642
G1 X98.761 Y121.172 E0.01437
G1 X98.455 Y121.051 E0.01452
G1 X97.931 Y120.768 E0.02625
G1 X97.662 Y120.578 E0.01452
G1 X97.413 Y120.369 E0.01432
G1 X97.182 Y120.139 E0.01437
G1 X96.946 Y119.856 E0.01623
G1 X96.758 Y119.587 E0.01449
G1 X96.495 Y119.101 E0.02431
G1 X96.357 Y118.756 E0.01640
G1 X96.265 Y118.443 E0.01437
G1 X96.200 Y118.125 E0.01432
G1 X96.160 Y117.798 E0.01452
G1 X96.160 Y117.202 E0.02625
G1 X96.200 Y116.875 E0.01452
G1 X96.265 Y116.557 E0.01432
G1 X96.357 Y116.245 E0.01432
G1 X96.474 Y115.942 E0.01432
G1 X96.617 Y115.650 E0.01432
G1 X96.785 Y115.368 E0.01450
G1 X97.150 Y114.897 E0.02627
G1 X97.360 Y114.685 E0.01311
G1 X97.338 Y114.314 F12000.000
G1 E-1.50000 F1800.000
;WIPE_START
G1 F9600.000
G1 X97.662 Y114.422 E-0.07138
G1 X97.931 Y114.232 E-0.05867
G1 X98.455 Y113.949 E-0.10608
G1 X98.761 Y113.828 E-0.05867
G1 X99.072 Y113.734 E-0.05788
G1 X99.391 Y113.666 E-0.05810
G1 X99.761 Y113.623 E-0.06626
G1 X100.312 Y113.623 E-0.09827
G1 X100.639 Y113.660 E-0.05859
G1 X101.000 Y113.733 E-0.06560
G1 X101.312 Y113.828 E-0.05808
G1 X101.619 Y113.949 E-0.05867
G1 X102.142 Y114.232 E-0.10608
G1 X102.411 Y114.422 E-0.05867
G1 X102.660 Y114.631 E-0.05788
G1 X102.892 Y114.861 E-0.05808
G1 X103.128 Y115.144 E-0.06560
G1 X103.316 Y115.413 E-0.05858
G1 X103.578 Y115.899 E-0.09827
G1 X103.716 Y116.244 E-0.06627
G1 X103.778 Y116.456 E-0.03933
;WIPE_END
G1 E-0.07500 F1800.000
G1 Z0.750 F12000.000
G1 X119.351 Y113.523
G1 Z0.250
G1 E3.00000 F1800.000
;TYPE:Perimeter
G1 F1500.000
G1 X119.975 Y113.142 E0.03225
G1 X120.054 Y113.595 E0.02027
G1 X120.485 Y113.436 E0.02027
G1 X120.467 Y114.168 E0.03225
G1 X119.867 Y113.918 E0.02865
G1 X119.410 Y113.569 E0.02534
G1 E-1.50000 F1800.000
;WIPE_START
G1 F9600.000
G1 X119.975 Y113.142 E-0.12613
G1 X120.054 Y113.595 E-0.08192
G1 X120.485 Y113.436 E-0.08192
G1 X120.467 Y114.168 E-0.13033
G1 X119.867 Y113.918 E-0.11578
G1 X119.410 Y113.569 E-0.10242
;WIPE_END
G1 E-0.86150 F1800.000
G1 Z0.750 F12000.000
G1 X119.975 Y89.858
G1 Z0.250
G1 E3.00000 F1800.000
G1 F1500.000
G1 X119.351 Y89.477 E0.03225
G1 X119.867 Y89.082 E0.02865
G1 X120.467 Y88.832 E0.02865
G1 X120.485 Y89.564 E0.03225
G1 X120.054 Y89.405 E0.02027
G1 X119.988 Y89.785 E0.01696
G1 E-1.50000 F1800.000
;WIPE_START
G1 F9600.000
G1 X119.351 Y89.477 E-0.12603
G1 X119.867 Y89.082 E-0.11578
G1 X120.467 Y88.832 E-0.11578
G1 X120.485 Y89.564 E-0.13033
G1 X120.054 Y89.405 E-0.08192
G1 X119.988 Y89.785 E-0.06856
;WIPE_END
G1 E-0.86160 F1800.000
G1 Z0.750 F12000.000
G1 X103.808 Y86.443
G1 Z0.250
G1 E3.00000 F1800.000
;TYPE:External perimeter
G1 F1500.000
G1 X103.716 Y86.755 E0.01432
G1 X103.599 Y87.058 E0.01432
G1 X103.456 Y87.350 E0.01432
G1 X103.288 Y87.632 E0.01450
G1 X102.923 Y88.103 E0.02627
G1 X102.661 Y88.368 E0.01642
G1 X102.411 Y88.578 E0.01437
G1 X102.146 Y88.765 E0.01432
G1 X101.862 Y88.932 E0.01451
G1 X101.317 Y89.171 E0.02625
G1 X101.001 Y89.266 E0.01452
G1 X100.683 Y89.334 E0.01432
G1 X100.361 Y89.374 E0.01432
G1 X100.032 Y89.388 E0.01452
G1 X99.438 Y89.341 E0.02625
G1 X99.073 Y89.267 E0.01642
G1 X98.761 Y89.172 E0.01437
G1 X98.455 Y89.051 E0.01452
G1 X97.931 Y88.768 E0.02625
G1 X97.662 Y88.578 E0.01452
G1 X97.413 Y88.369 E0.01432
G1 X97.182 Y88.139 E0.01437
G1 X96.946 Y87.856 E0.01623
G1 X96.758 Y87.587 E0.01449
G1 X96.495 Y87.101 E0.02431
G1 X96.357 Y86.756 E0.01640
G1 X96.265 Y86.443 E0.01437
G1 X96.200 Y86.125 E0.01432
G1 X96.160 Y85.798 E0.01452
G1 X96.160 Y85.202 E0.02625
G1 X96.200 Y84.875 E0.01452
G1 X96.265 Y84.557 E0.01432
G1 X96.357 Y84.245 E0.01432
G1 X96.474 Y83.942 E0.01432
G1 X96.617 Y83.650 E0.01432
G1 X96.785 Y83.368 E0.01450
G1 X97.150 Y82.897 E0.02627
G1 X97.412 Y82.632 E0.01642
G1 X97.662 Y82.422 E0.01437
G1 X97.931 Y82.232 E0.01452
G1 X98.455 Y81.949 E0.02625
G1 X98.761 Y81.828 E0.01452
G1 X99.072 Y81.734 E0.01432
G1 X99.391 Y81.666 E0.01437
G1 X99.761 Y81.623 E0.01639
G1 X100.312 Y81.623 E0.02431
G1 X100.639 Y81.660 E0.01450
G1 X101.000 Y81.733 E0.01623
G1 X101.312 Y81.828 E0.01437
G1 X101.619 Y81.949 E0.01452
G1 X102.142 Y82.232 E0.02625
G1 X102.411 Y82.422 E0.01452
G1 X102.660 Y82.631 E0.01432
G1 X102.892 Y82.861 E0.01437
G1 X103.128 Y83.144 E0.01623
G1 X103.316 Y83.413 E0.01449
G1 X103.578 Y83.899 E0.02432
G1 X103.716 Y84.244 E0.01640
G1 X103.808 Y84.557 E0.01437
G1 X103.874 Y84.875 E0.01432
G1 X103.913 Y85.202 E0.01452
G1 X103.913 Y85.798 E0.02625
G1 X103.823 Y86.370 E0.02551
G1 X104.048 Y86.663 F12000.000
G1 E-1.50000 F1800.000
;WIPE_START
G1 F9600.000
G1 X103.716 Y86.755 E-0.07120
G1 X103.599 Y87.058 E-0.05788
G1 X103.456 Y87.350 E-0.05786
G1 X103.288 Y87.632 E-0.05860
G1 X102.923 Y88.103 E-0.10618
G1 X102.661 Y88.368 E-0.06635
G1 X102.411 Y88.578 E-0.05807
G1 X102.146 Y88.765 E-0.05787
G1 X101.862 Y88.932 E-0.05865
G1 X101.317 Y89.171 E-0.10608
G1 X101.001 Y89.266 E-0.05869
G1 X100.683 Y89.334 E-0.05788
G1 X100.361 Y89.374 E-0.05788
G1 X100.032 Y89.388 E-0.05867
G1 X99.438 Y89.341 E-0.10608
G1 X99.073 Y89.267 E-0.06634
G1 X98.761 Y89.172 E-0.05808
G1 X98.455 Y89.051 E-0.05867
G1 X97.931 Y88.768 E-0.10608
G1 X97.662 Y88.578 E-0.05867
G1 X97.493 Y88.436 E-0.03922
;WIPE_END
G1 E-0.07500 F1800.000
G1 Z0.750 F12000.000
G1 X115.330 Y86.777
G1 Z0.250
G1 E3.00000 F1800.000
;TYPE:Perimeter
G1 F1500.000
G1 X117.024 Y86.711 E0.07474
G1 X117.749 Y86.729 E0.03194
G1 X118.559 Y86.810 E0.03588
G1 X118.757 Y86.347 E0.02222
G1 X119.189 Y85.512 E0.04140
G1 X120.138 Y84.000 E0.07867
G1 X121.380 Y83.582 E0.05777
G1 X122.074 Y83.378 E0.03188
G1 X123.438 Y83.058 E0.06176
G1 X124.823 Y82.841 E0.06176
G1 X125.557 Y82.769 E0.03249
G1 X126.855 Y82.713 E0.05726
G1 X127.663 Y82.721 E0.03562
G1 X128.388 Y82.759 E0.03203
G1 X129.767 Y82.910 E0.06110
G1 X130.490 Y83.031 E0.03232
G1 X131.518 Y83.256 E0.04638
G1 X132.548 Y83.536 E0.04704
G1 X133.881 Y84.000 E0.06220
G1 X135.179 Y84.566 E0.06243
G1 X136.418 Y85.220 E0.06176
G1 X137.050 Y85.601 E0.03249
G1 X138.124 Y86.332 E0.05726
G1 X138.767 Y86.822 E0.03562
G1 X139.326 Y87.286 E0.03203
G1 X140.347 Y88.238 E0.06154
G1 X141.076 Y89.017 E0.04704
G1 X141.756 Y89.821 E0.04638
G1 X142.200 Y90.404 E0.03232
G1 X142.986 Y91.565 E0.06176
G1 X143.689 Y92.795 E0.06243
G1 X144.297 Y94.073 E0.06238
G1 X144.772 Y95.298 E0.05792
G1 X145.028 Y96.080 E0.03628
G1 X145.379 Y97.425 E0.06126
G1 X145.638 Y98.708 E0.05767
G1 X145.093 Y99.787 E0.05326
G1 X144.481 Y100.832 E0.05339
G1 X143.992 Y101.489 E0.03612
G1 X144.471 Y102.154 E0.03613
G1 X144.813 Y102.710 E0.02876
G1 X145.641 Y104.275 E0.07805
G1 X145.382 Y105.560 E0.05777
G1 X145.212 Y106.264 E0.03188
G1 X144.807 Y107.605 E0.06176
G1 X144.297 Y108.926 E0.06243
G1 X143.689 Y110.205 E0.06243
G1 X142.986 Y111.435 E0.06243
G1 X142.192 Y112.608 E0.06243
G1 X141.312 Y113.718 E0.06243
G1 X140.351 Y114.759 E0.06243
G1 X139.315 Y115.724 E0.06243
G1 X138.208 Y116.609 E0.06243
G1 X137.051 Y117.399 E0.06176
G1 X136.418 Y117.780 E0.03254
G1 X135.193 Y118.427 E0.06110
G1 X134.521 Y118.735 E0.03254
G1 X133.230 Y119.240 E0.06110
G1 X132.528 Y119.469 E0.03254
G1 X131.174 Y119.829 E0.06176
G1 X129.782 Y120.089 E0.06243
G1 X128.375 Y120.242 E0.06238
G1 X127.061 Y120.288 E0.05792
G1 X126.238 Y120.273 E0.03628
G1 X124.853 Y120.162 E0.06125
G1 X124.121 Y120.062 E0.03254
G1 X122.746 Y119.794 E0.06176
G1 X121.395 Y119.423 E0.06176
G1 X120.138 Y119.000 E0.05844
G1 X119.187 Y117.485 E0.07884
G1 X118.758 Y116.645 E0.04153
G1 X118.565 Y116.189 E0.02183
G1 X117.753 Y116.271 E0.03597
G1 X117.101 Y116.290 E0.02876
G1 X115.331 Y116.224 E0.07805
G1 X114.348 Y115.357 E0.05778
G1 X113.823 Y114.859 E0.03188
G1 X112.864 Y113.837 E0.06176
G1 X111.975 Y112.735 E0.06243
G1 X111.172 Y111.568 E0.06243
G1 X110.458 Y110.345 E0.06243
G1 X109.846 Y109.084 E0.06176
G1 X109.561 Y108.403 E0.03254
G1 X109.095 Y107.082 E0.06172
G1 X108.750 Y105.814 E0.05792
G1 X108.578 Y105.009 E0.03628
G1 X108.366 Y103.621 E0.06192
G1 X108.261 Y102.223 E0.06176
G1 X108.247 Y101.490 E0.03232
G1 X108.280 Y100.438 E0.04638
G1 X108.367 Y99.379 E0.04682
G1 X108.520 Y98.328 E0.04682
G1 X108.725 Y97.286 E0.04682
G1 X108.996 Y96.259 E0.04682
G1 X109.319 Y95.242 E0.04704
G1 X109.839 Y93.929 E0.06220
G1 X110.458 Y92.655 E0.06243
G1 X111.172 Y91.432 E0.06243
G1 X111.975 Y90.265 E0.06243
G1 X112.864 Y89.163 E0.06243
G1 X113.823 Y88.141 E0.06176
G1 X114.348 Y87.643 E0.03188
G1 X115.274 Y86.826 E0.05441
G1 X115.506 Y87.216 F12000.000
G1 F1500.000
G1 X117.028 Y87.158 E0.06713
G1 X117.721 Y87.174 E0.03058
G1 X118.396 Y87.242 E0.02990
G1 X118.873 Y87.369 E0.02172
G1 X119.016 Y86.878 E0.02255
G1 X119.161 Y86.537 E0.01633
G1 X119.577 Y85.734 E0.03986
G1 X120.431 Y84.373 E0.07083
G1 X121.515 Y84.008 E0.05038
G1 X122.188 Y83.809 E0.03095
G1 X123.524 Y83.496 E0.06047
G1 X124.880 Y83.284 E0.06047
G1 X125.588 Y83.214 E0.03139
G1 X126.862 Y83.159 E0.05619
G1 X127.649 Y83.167 E0.03468
G1 X128.353 Y83.204 E0.03106
G1 X129.706 Y83.352 E0.05999
G1 X130.405 Y83.469 E0.03127
G1 X131.411 Y83.689 E0.04539
G1 X132.415 Y83.963 E0.04586
G1 X133.718 Y84.416 E0.06078
G1 X134.986 Y84.968 E0.06094
G1 X136.199 Y85.609 E0.06047
G1 X136.809 Y85.977 E0.03139
G1 X137.863 Y86.694 E0.05619
G1 X138.489 Y87.171 E0.03468
G1 X139.031 Y87.621 E0.03106
G1 X140.032 Y88.554 E0.06031
G1 X140.743 Y89.314 E0.04586
G1 X141.408 Y90.101 E0.04539
G1 X141.838 Y90.665 E0.03127
G1 X142.606 Y91.801 E0.06047
G1 X143.293 Y93.001 E0.06094
G1 X143.886 Y94.249 E0.06091
G1 X144.351 Y95.448 E0.05666
G1 X144.599 Y96.206 E0.03515
G1 X144.944 Y97.525 E0.06010
G1 X145.170 Y98.644 E0.05031
G1 X144.701 Y99.573 E0.04583
G1 X144.106 Y100.588 E0.05184
G1 X143.718 Y101.127 E0.02930
G1 X143.356 Y101.505 E0.02304
G1 X143.704 Y101.854 E0.02172
G1 X144.099 Y102.402 E0.02978
G1 X144.425 Y102.932 E0.02741
G1 X145.172 Y104.343 E0.07039
G1 X144.946 Y105.464 E0.05038
G1 X144.781 Y106.147 E0.03095
G1 X144.385 Y107.460 E0.06047
G1 X143.887 Y108.750 E0.06094
G1 X143.293 Y109.999 E0.06094
G1 X142.606 Y111.199 E0.06094
G1 X141.832 Y112.344 E0.06094
G1 X140.973 Y113.428 E0.06094
G1 X140.035 Y114.444 E0.06094
G1 X139.023 Y115.386 E0.06094
G1 X137.943 Y116.249 E0.06094
G1 X136.810 Y117.023 E0.06047
G1 X136.199 Y117.391 E0.03143
G1 X134.995 Y118.027 E0.05999
G1 X134.347 Y118.324 E0.03142
G1 X133.079 Y118.819 E0.05999
G1 X132.402 Y119.041 E0.03142
G1 X131.076 Y119.393 E0.06047
G1 X129.716 Y119.647 E0.06094
G1 X128.343 Y119.797 E0.06091
G1 X127.058 Y119.842 E0.05666
G1 X126.260 Y119.827 E0.03515
G1 X124.901 Y119.718 E0.06010
G1 X124.195 Y119.622 E0.03142
G1 X122.848 Y119.359 E0.06047
G1 X121.525 Y118.995 E0.06047
G1 X120.431 Y118.627 E0.05086
G1 X119.575 Y117.264 E0.07095
G1 X119.163 Y116.457 E0.03995
G1 X119.014 Y116.104 E0.01685
G1 X118.878 Y115.630 E0.02177
G1 X118.396 Y115.758 E0.02196
G1 X117.724 Y115.825 E0.02978
G1 X117.103 Y115.843 E0.02741
G1 X115.507 Y115.784 E0.07039
G1 X114.649 Y115.028 E0.05038
G1 X114.140 Y114.544 E0.03095
G1 X113.201 Y113.544 E0.06047
G1 X112.333 Y112.468 E0.06094
G1 X111.549 Y111.329 E0.06094
G1 X110.852 Y110.134 E0.06094
G1 X110.253 Y108.900 E0.06047
G1 X109.978 Y108.243 E0.03143
G1 X109.521 Y106.949 E0.06043
G1 X109.184 Y105.709 E0.05666
G1 X109.017 Y104.929 E0.03515
G1 X108.810 Y103.570 E0.06057
G1 X108.707 Y102.202 E0.06047
G1 X108.694 Y101.493 E0.03127
G1 X108.726 Y100.463 E0.04539
G1 X108.811 Y99.430 E0.04571
G1 X108.960 Y98.404 E0.04571
G1 X109.161 Y97.386 E0.04571
G1 X109.425 Y96.383 E0.04571
G1 X109.740 Y95.392 E0.04586
G1 X110.248 Y94.109 E0.06078
G1 X110.852 Y92.866 E0.06094
G1 X111.549 Y91.671 E0.06094
G1 X112.333 Y90.532 E0.06094
G1 X113.201 Y89.456 E0.06094
G1 X114.140 Y88.456 E0.06047
G1 X114.649 Y87.972 E0.03095
G1 X115.450 Y87.266 E0.04704
G1 X115.682 Y87.656 F12000.000
G1 F1500.000
G1 X117.031 Y87.605 E0.05951
G1 X117.694 Y87.620 E0.02921
G1 X118.316 Y87.683 E0.02758
G1 X118.979 Y87.859 E0.03023
G1 X119.244 Y88.003 E0.01329
G1 X119.252 Y87.716 E0.01266
G1 X119.334 Y87.353 E0.01639
G1 X119.435 Y87.033 E0.01481
G1 X119.565 Y86.728 E0.01463
G1 X119.965 Y85.955 E0.03832
G1 X120.725 Y84.745 E0.06299
G1 X121.649 Y84.434 E0.04299
G1 X122.303 Y84.241 E0.03002
G1 X123.610 Y83.934 E0.05917
G1 X124.936 Y83.727 E0.05917
G1 X125.620 Y83.660 E0.03029
G1 X126.869 Y83.606 E0.05512
G1 X127.635 Y83.613 E0.03374
G1 X128.317 Y83.649 E0.03009
G1 X129.645 Y83.794 E0.05888
G1 X130.321 Y83.907 E0.03022
G1 X131.305 Y84.123 E0.04440
G1 X132.283 Y84.390 E0.04469
G1 X133.555 Y84.832 E0.05936
G1 X134.792 Y85.371 E0.05946
G1 X135.979 Y85.998 E0.05917
G1 X136.568 Y86.353 E0.03029
G1 X137.602 Y87.056 E0.05512
G1 X138.211 Y87.520 E0.03374
G1 X138.736 Y87.957 E0.03009
